X: 191
T:Deus in adiutorium
N: Derived from Jos1601-Deus_in_adiutorium_meum.krn
C: Josquin des Prez
%%abc-version 2.0
%%abcx-abcm2ps-target-version 5.9.1 (29 Sep 2008)
%%abc-creator hum2abc beta
%%abcx-conversion-date 2019/02/12 16:15:47
%%abc-edited-by Jesse Rodin
%%abc-edited-by Victoria Chang
%%abcx-initial-encoding-date 2011/03/21/
%%humdrum-veritas 1982798585
%%humdrum-veritas-data 3779064504
%%linebreak <none>
%%barnumbers 0
L: 1/4
M: 2/1
Q: 1/2=120
%%staves [1 2 3 4]
V: 1 clef=treble
V: 2 clef=treble-8
V: 3 clef=treble-8
V: 4 clef=bass
K: F
[V:1] x8 | 
[V:2] z8 | 
[V:3] c4c2c2 | 
[V:4] z8 | 
[V:1] x8 | 
[V:2] z8 | 
[V:3] c2c2d4- | 
[V:4] z8 | 
[V:1] x8 | 
[V:2] z8 | 
[V:3] d2c2c4 | 
[V:4] F,4F,2F,2 | 
[V:1] x8 | 
[V:2] z8 | 
[V:3] c4B4- | 
[V:4] F,2F,2G,4- | 
[V:1] x8 | 
[V:2] z4f4 | 
[V:3] B2A2c4 | 
[V:4] G,2F,2F,4- | 
[V:1] x8 | 
[V:2] f2f2f2f2 | 
[V:3] c6BA | 
[V:4] F,4F,4 | 
[V:1] x8 | 
[V:2] g6f2 | 
[V:3] G4z4 | 
[V:4] E,6D,2 | 
[V:1] x8 | 
[V:2] f4f4 | 
[V:3] z8 | 
[V:4] F,4F,4 | 
[V:1] x8 | 
[V:2] e4d4 | 
[V:3] z4B4- | 
[V:4] z8 | 
[V:1] x8 | 
[V:2] f8 | 
[V:3] B2F2F4- | 
[V:4] z8 | 
[V:1] x8 | 
[V:2] f4d4- | 
[V:3] F8- | 
[V:4] z4B,,4- | 
[V:1] x8 | 
[V:2] d2c2c4 | 
[V:3] F4A4- | 
[V:4] B,,2F,,2F,,4 | 
[V:1] x8 | 
[V:2] z4f4- | 
[V:3] A8- | 
[V:4] F,8- | 
[V:1] x8 | 
[V:2] f2c2c4 | 
[V:3] A4A4- | 
[V:4] F,4F,4- | 
[V:1] x8 | 
[V:2] z2c2c2d2 | 
[V:3] A2G2A4 | 
[V:4] F,2E,2F,4 | 
[V:1] x8 | 
[V:2] e2c2d4- | 
[V:3] G4B4- | 
[V:4] C,4G,4- | 
[V:1] x8 | 
[V:2] d4d4 | 
[V:3] B4B4 | 
[V:4] G,4G,4 | 
[V:1] x8 | 
[V:2] f4e2d2 | 
[V:3] A4B3c | 
[V:4] F,4G,4 | 
[V:1] x8 | 
[V:2] e6c2 | 
[V:3] A2G2c3B | 
[V:4] C,8- | 
[V:1] x8 | 
[V:2] c8- | 
[V:3] A2GFG4 | 
[V:4] C,8 | 
[V:1] x8 | 
[V:2] c8- | 
[V:3] F8 | 
[V:4] F,,4z4 | 
[V:1] x8 | 
[V:2] c8 | 
[V:3] z4z2A2 | 
[V:4] F,6E,2 | 
[V:1] x8 | 
[V:2] z8 | 
[V:3] A4d4 | 
[V:4] D,3C,B,,4 | 
[V:1] x8 | 
[V:2] z8 | 
[V:3] c3BA2G2 | 
[V:4] A,,2F,4E,2 | 
[V:1] x8 | 
[V:2] z8 | 
[V:3] FEA4G2 | 
[V:4] D,3C,B,,4 | 
[V:1] x8 | 
[V:2] z4c4 | 
[V:3] A8 | 
[V:4] A,,8 | 
[V:1] x8 | 
[V:2] c4d4 | 
[V:3] z8 | 
[V:4] z8 | 
[V:1] x8 | 
[V:2] c3BA2G2 | 
[V:3] z8 | 
[V:4] z8 | 
[V:1] x8 | 
[V:2] c4d4 | 
[V:3] F8 | 
[V:4] z4B,,4 | 
[V:1] x8 | 
[V:2] G8- | 
[V:3] c6c2 | 
[V:4] C,6C,2 | 
[V:1] x8 | 
[V:2] G4z2d2 | 
[V:3] c3AA2B2- | 
[V:4] C,4D,4 | 
[V:1] x8 | 
[V:2] d3cB3A | 
[V:3] BGGABcd2- | 
[V:4] G,,8 | 
[V:1] x8 | 
[V:2] G4F4 | 
[V:3] dcc4BA | 
[V:4] z8 | 
[V:1] x8 | 
[V:2] G2d4d2- | 
[V:3] B4A3G | 
[V:4] G,,4D,4- | 
[V:1] x8 | 
[V:2] d2c2d4 | 
[V:3] F2G2A4 | 
[V:4] D,2E,2D,4 | 
[V:1] x8 | 
[V:2] B8 | 
[V:3] G8- | 
[V:4] G,,8 | 
[V:1] x8 | 
[V:2] z2d2c4 | 
[V:3] G8 | 
[V:4] B,,4C,4 | 
[V:1] x8 | 
[V:2] A4d3e | 
[V:3] z4B4 | 
[V:4] D,4G,,3G, | 
[V:1] x8 | 
[V:2] f2g3ff2- | 
[V:3] c4d4 | 
[V:4] F,2E,2D,4 | 
[V:1] x8 | 
[V:2] f2e2f4- | 
[V:3] G4d4- | 
[V:4] C,4z4 | 
[V:1] x8 | 
[V:2] f8 | 
[V:3] d2d2d4 | 
[V:4] z8 | 
[V:1] x8 | 
[V:2] z8 | 
[V:3] z2d2d2c2 | 
[V:4] z8 | 
[V:1] x8 | 
[V:2] z8 | 
[V:3] f3edcd2- | 
[V:4] z8 | 
[V:1] x8 | 
[V:2] z8 | 
[V:3] dcA2B4 | 
[V:4] z8 | 
[V:1] x8 | 
[V:2] z8 | 
[V:3] A8 | 
[V:4] z4F,4 | 
[V:1] x8 | 
[V:2] z4c4 | 
[V:3] z8 | 
[V:4] G,4A,4 | 
[V:1] x8 | 
[V:2] d4e4- | 
[V:3] z8 | 
[V:4] D,4A,4- | 
[V:1] x8 | 
[V:2] e2A2e4 | 
[V:3] z8 | 
[V:4] A,2A,2A,4 | 
[V:1] x8 | 
[V:2] e4e4 | 
[V:3] z8 | 
[V:4] z2A,2A,2G,2 | 
[V:1] x8 | 
[V:2] z2e2e2f2- | 
[V:3] z8 | 
[V:4] C3B,A,G,A,2- | 
[V:1] x8 | 
[V:2] fee4d2 | 
[V:3] z8 | 
[V:4] A,G,E,2F,4 | 
[V:1] x8 | 
[V:2] e4z2e2 | 
[V:3] G4c4- | 
[V:4] E,4C,4 | 
[V:1] x8 | 
[V:2] e4e4 | 
[V:3] c2B2A2G2 | 
[V:4] C,4C,4 | 
[V:1] x8 | 
[V:2] c2d4c2 | 
[V:3] A2D2G3A | 
[V:4] F,4E,4 | 
[V:1] x8 | 
[V:2] (3d4A4=B4 | 
[V:3] B2A4GF | 
[V:4] D,8 | 
[V:1] x8 | 
[V:2] c8- | 
[V:3] G4E4- | 
[V:4] C,8- | 
[V:1] x8 | 
[V:2] c8- | 
[V:3] E2F2G4 | 
[V:4] C,8 | 
[V:1] x8 | 
[V:2] c8 | 
[V:3] F8 | 
[V:4] F,,8- | 
[V:1] x8 | 
[V:2] A8 | 
[V:3] z4F4 | 
[V:4] F,,8 | 
[V:1] x8 | 
[V:2] z4z2c2 | 
[V:3] A2F2c4 | 
[V:4] z8 | 
[V:1] x8 | 
[V:2] e2c2g4 | 
[V:3] c4G4- | 
[V:4] z4C,4 | 
[V:1] x8 | 
[V:2] g4d2d2 | 
[V:3] G4z4 | 
[V:4] E,2C,2G,4 | 
[V:1] x8 | 
[V:2] d2d2f4 | 
[V:3] z2G2A2F2 | 
[V:4] G,4D,4 | 
[V:1] x8 | 
[V:2] e4z2d2 | 
[V:3] c4B4 | 
[V:4] z4G,4- | 
[V:1] x8 | 
[V:2] d2d2f4 | 
[V:3] z2G2A2F2 | 
[V:4] G,4D,4 | 
[V:1] x8 | 
[V:2] e4d4 | 
[V:3] c4B4 | 
[V:4] z8 | 
[V:1] x8 | 
[V:2] e4e4 | 
[V:3] c4c2c2 | 
[V:4] z8 | 
[V:1] x8 | 
[V:2] f8- | 
[V:3] F3GA4 | 
[V:4] z2D,2F,2D,2 | 
[V:1] x8 | 
[V:2] f4e4 | 
[V:3] z2c2c2c2 | 
[V:4] F,4C,4 | 
[V:1] x8 | 
[V:2] z8 | 
[V:3] A4B4 | 
[V:4] D,4B,,2B,,2 | 
[V:1] x8 | 
[V:2] z2f4d2 | 
[V:3] A8- | 
[V:4] F,4D,4- | 
[V:1] x8 | 
[V:2] f4e2f2- | 
[V:3] A4A4- | 
[V:4] D,4F,4- | 
[V:1] x8 | 
[V:2] f2e2d4 | 
[V:3] A2G2F4 | 
[V:4] F,2C,2D,4 | 
[V:1] x8 | 
[V:2] c6d2 | 
[V:3] E8- | 
[V:4] A,,8 | 
[V:1] x8 | 
[V:2] e8- | 
[V:3] E8 | 
[V:4] z4A,,4 | 
[V:1] x8 | 
[V:2] e8- | 
[V:3] z2E2G4 | 
[V:4] C,4C,4 | 
[V:1] x8 | 
[V:2] e8 | 
[V:3] G4z2G2- | 
[V:4] z2C,4C,2 | 
[V:1] x8 | 
[V:2] z8 | 
[V:3] G2G2G2G2 | 
[V:4] C,2C,2B,,4 | 
[V:1] x8 | 
[V:2] z8 | 
[V:3] F4E4 | 
[V:4] A,,4C,4- | 
[V:1] x8 | 
[V:2] z8 | 
[V:3] G8 | 
[V:4] C,4G,,2G,,2 | 
[V:1] x8 | 
[V:2] z4d4 | 
[V:3] D2D2F4- | 
[V:4] B,,6F,,2 | 
[V:1] x8 | 
[V:2] f4f4 | 
[V:3] F2C2C4 | 
[V:4] F,,8- | 
[V:1] x8 | 
[V:2] z2f4f2 | 
[V:3] z8 | 
[V:4] F,,8 | 
[V:1] x8 | 
[V:2] f2f2e4 | 
[V:3] z8 | 
[V:4] z8 | 
[V:1] x8 | 
[V:2] d4f4- | 
[V:3] z8 | 
[V:4] z8 | 
[V:1] x8 | 
[V:2] f4c2c2 | 
[V:3] z8 | 
[V:4] z8 | 
[V:1] x8 | 
[V:2] _e6B2 | 
[V:3] z8 | 
[V:4] z8 | 
[V:1] x8 | 
[V:2] B4z2A2 | 
[V:3] z4F4 | 
[V:4] B,,4D,4- | 
[V:1] x8 | 
[V:2] B2A2d4- | 
[V:3] F4F4 | 
[V:4] D,4D,4 | 
[V:1] x8 | 
[V:2] d2cBc4 | 
[V:3] G8 | 
[V:4] _E,8 | 
[V:1] x8 | 
[V:2] d4f4 | 
[V:3] A8 | 
[V:4] D,8- | 
[V:1] x8 | 
[V:2] f4f4 | 
[V:3] z4d4 | 
[V:4] D,8 | 
[V:1] x8 | 
[V:2] g2f4e2 | 
[V:3] d4B4 | 
[V:4] G,8 | 
[V:1] x8 | 
[V:2] f4c4 | 
[V:3] c4A4 | 
[V:4] F,4F,4 | 
[V:1] x8 | 
[V:2] z4f4- | 
[V:3] d8 | 
[V:4] B,,4B,,4 | 
[V:1] x8 | 
[V:2] f4f4 | 
[V:3] c6F2 | 
[V:4] F,8 | 
[V:1] x8 | 
[V:2] f8- | 
[V:3] A3Bc4 | 
[V:4] F,8 | 
[V:1] x8 | 
[V:2] f8 | 
[V:3] B4z2F2 | 
[V:4] B,,8- | 
[V:1] x8 | 
[V:2] d8 | 
[V:3] F2F2B4 | 
[V:4] B,,8 | 
[V:1] x8 | 
[V:2] B8 | 
[V:3] z2G2G2G2 | 
[V:4] z8 | 
[V:1] x8 | 
[V:2] z2c2c2c2 | 
[V:3] c3B/A/A4 | 
[V:4] z8 | 
[V:1] x8 | 
[V:2] f3ed2c2 | 
[V:3] z8 | 
[V:4] z8 | 
[V:1] x8 | 
[V:2] B2c4=B2 | 
[V:3] z4G4 | 
[V:4] z8 | 
[V:1] x8 | 
[V:2] c4z4 | 
[V:3] G2G2c3B | 
[V:4] C,4C,2C,2 | 
[V:1] x8 | 
[V:2] z8 | 
[V:3] A2G2F2E2 | 
[V:4] F,3E,D,2C,2 | 
[V:1] x8 | 
[V:2] z8 | 
[V:3] DCF4E2 | 
[V:4] B,,2A,,2G,,4 | 
[V:1] x8 | 
[V:2] z2c2d3c | 
[V:3] F4D2E2 | 
[V:4] F,,4z2C,2 | 
[V:1] x8 | 
[V:2] B2A2c4 | 
[V:3] F4G4 | 
[V:4] D,4C,4 | 
[V:1] x8 | 
[V:2] A8 | 
[V:3] F4z4 | 
[V:4] z4D,4 | 
[V:1] x8 | 
[V:2] z8 | 
[V:3] A4c4- | 
[V:4] F,8 | 
[V:1] x8 | 
[V:2] z8 | 
[V:3] c4B4 | 
[V:4] E,4D,4 | 
[V:1] x8 | 
[V:2] z8 | 
[V:3] A4z2G2 | 
[V:4] z2C,2_E,4 | 
[V:1] x8 | 
[V:2] z8 | 
[V:3] B4A4 | 
[V:4] D,4C,4 | 
[V:1] x8 | 
[V:2] z8 | 
[V:3] G4B4- | 
[V:4] _E,6D,2 | 
[V:1] x8 | 
[V:2] d4f4- | 
[V:3] B2A2A4- | 
[V:4] D,8 | 
[V:1] x8 | 
[V:2] f4e4 | 
[V:3] A4z4 | 
[V:4] z8 | 
[V:1] x8 | 
[V:2] d4z2c2 | 
[V:3] z8 | 
[V:4] z8 | 
[V:1] x8 | 
[V:2] _e4d4 | 
[V:3] z8 | 
[V:4] z8 | 
[V:1] x8 | 
[V:2] c4_e4- | 
[V:3] z8 | 
[V:4] z8 | 
[V:1] x8 | 
[V:2] e2d2d4- | 
[V:3] z8 | 
[V:4] z8 | 
[V:1] x8 | 
[V:2] d4z4 | 
[V:3] z4A4- | 
[V:4] D,4D,2F,2- | 
[V:1] x8 | 
[V:2] z8 | 
[V:3] A2c4G2 | 
[V:4] F,2C,2_E,4- | 
[V:1] x8 | 
[V:2] z4d4 | 
[V:3] B6A2 | 
[V:4] E,2D,2D,4- | 
[V:1] x8 | 
[V:2] d2f4c2 | 
[V:3] A8 | 
[V:4] D,4z4 | 
[V:1] x8 | 
[V:2] _e6d2 | 
[V:3] z8 | 
[V:4] z8 | 
[V:1] x8 | 
[V:2] d8 | 
[V:3] z8 | 
[V:4] z4z2D,2- | 
[V:1] x8 | 
[V:2] z8 | 
[V:3] A4c4 | 
[V:4] D,2F,4E,2- | 
[V:1] x8 | 
[V:2] z8 | 
[V:3] B4d4 | 
[V:4] E,2G,4D,2- | 
[V:1] x8 | 
[V:2] z8 | 
[V:3] A4z2A2 | 
[V:4] D,2D,2F,2F,2 | 
[V:1] x8 | 
[V:2] z8 | 
[V:3] c2c2B2B2 | 
[V:4] E,2E,2G,4 | 
[V:1] x8 | 
[V:2] z8 | 
[V:3] d4A2c2- | 
[V:4] D,2F,4E,D, | 
[V:1] x8 | 
[V:2] z2G4B2- | 
[V:3] c2BAG4 | 
[V:4] C,4z4 | 
[V:1] x8 | 
[V:2] B2A4c2- | 
[V:3] z8 | 
[V:4] z8 | 
[V:1] x8 | 
[V:2] c2G4G2 | 
[V:3] z8 | 
[V:4] C,4G,4- | 
[V:1] x8 | 
[V:2] B2B2A2A2 | 
[V:3] z8 | 
[V:4] G,2G,2F,2D,2 | 
[V:1] x8 | 
[V:2] c4G2B2- | 
[V:3] z4G3A | 
[V:4] A,4E,2G,2- | 
[V:1] x8 | 
[V:2] B2AGF4 | 
[V:3] Bcd4cB | 
[V:4] G,2F,E,D,2F,2- | 
[V:1] x8 | 
[V:2] z4c4- | 
[V:3] A2c4BA | 
[V:4] F,2E,D,C,4 | 
[V:1] x8 | 
[V:2] c4c4 | 
[V:3] G4G2G2 | 
[V:4] C,4C,4 | 
[V:1] x8 | 
[V:2] d4d4 | 
[V:3] B4B4 | 
[V:4] B,,4B,,4 | 
[V:1] x8 | 
[V:2] c6BA | 
[V:3] G8 | 
[V:4] C,8- | 
[V:1] x8 | 
[V:2] G4g4- | 
[V:3] z8 | 
[V:4] C,8 | 
[V:1] x8 | 
[V:2] g2f2e3d | 
[V:3] c6B2 | 
[V:4] z8 | 
[V:1] x8 | 
[V:2] c8 | 
[V:3] A3GF4 | 
[V:4] F,6E,2 | 
[V:1] x8 | 
[V:2] z4d4- | 
[V:3] F4B4- | 
[V:4] D,3C,B,,4- | 
[V:1] x8 | 
[V:2] d2B2B4 | 
[V:3] B2G2G4 | 
[V:4] B,,4_E,4- | 
[V:1] x8 | 
[V:2] _e8 | 
[V:3] c8 | 
[V:4] E,2C,2C,4 | 
[V:1] x8 | 
[V:2] (3d4A4=B4 | 
[V:3] F8 | 
[V:4] D,8 | 
[V:1] x8 | 
[V:2] c4G4 | 
[V:3] z8 | 
[V:4] C,8- | 
[V:1] x8 | 
[V:2] g6f2 | 
[V:3] z4c4- | 
[V:4] C,8 | 
[V:1] x8 | 
[V:2] e3dc4- | 
[V:3] c2B2A3G | 
[V:4] z4F,4- | 
[V:1] x8 | 
[V:2] c4z4 | 
[V:3] F8 | 
[V:4] F,2E,2D,3C, | 
[V:1] x8 | 
[V:2] d6B2 | 
[V:3] B6G2 | 
[V:4] B,,8 | 
[V:1] x8 | 
[V:2] B4_e4- | 
[V:3] G4c4- | 
[V:4] _E,6C,2 | 
[V:1] x8 | 
[V:2] e4d2B2 | 
[V:3] c4F4 | 
[V:4] C,4D,4 | 
[V:1] x8 | 
[V:2] c8 | 
[V:3] G8 | 
[V:4] C,8 | 
[V:1] x8 |]  
[V:2] c8 |]  
[V:3] F8 |]  
[V:4] F,,8 |]  



